X:264
T:Polka
T:Haughs of Cromdale
S:Anne Sheehy-McAuliffe, Co. Kerry.
Z:Nigel Gatherer
M:2/4
L:1/8
K:Em
BE EB|BA FA|BE EF|D>E FA|BE EB|BA FA|d>B AF|E2 E2|]
Be ef|ed BA|Be ef|d2 BA|Be ef|ed BA|d>B AF|E2 E2|]
<end>
<start>
